X:1
T:Glorious Peace, 11.11.11 D
T:Glorious Peace, 11.11.11 D
T:Scott Werdebaugh, 2016
T:© 2016 Scott Werdebaugh. Reproduce or publish freely for Christian worship or devotions. Courtesy of the Cyber Hymnal™
C:Scott Werdebaugh, 2016
Z:© 2016 Scott Werdebaugh. Reproduce or publish freely for Christian worship or devotions.
Z:Courtesy of the Cyber Hymnal™
%%score ( 1 2 ) ( 3 4 )
L:1/8
Q:1/4=115
M:4/4
K:C
V:1 treble 
V:2 treble 
V:3 bass 
V:4 bass 
V:1
 C2 [CE]2 [EG]2 [DF]2 | [CE]4 C4 | [CF]2 [CF]2 [EG]2 [DF]2 | [CE]8 | [FA]2 [DA]2 [GB]2 [FB]2 | %5
 c4 [CG]4 | [D^F]2 [DF]2 [DG]2 [DA]2 | [DG]8 | [CE]2 [EG]2 [Gc]2 [GB]2 | ([F-A]2 [FB]2) [Ec]4 | %10
 [Bd]2 [GB]2 (cB) [^FA]2 | [DG]8 | [Ec]2 [EG]2 [FA]2 [EG]2 | ([D-G]2 [DF]2) [CE]4 | %14
 [CF]2 [CE]2 [B,E]2 [B,D]2 | C8 | [CE]2 [EG]2 [Gc]2 [GB]2 | ([F-A]2 [FB]2) [Ec]4 | %18
 [Bd]2 [GB]2 (cB) [^FA]2 | [DG]8 | [Gc]2 [EG]2 [FA]2 [EG]2 | ([D-G]2 [DF]2) [CE]4 | %22
 [CF]2 [CE]2 [B,E]2 [B,D]2 | C8 |] %24
V:2
 C2 x6 | x4 C4 | x8 | x8 | x8 | (E2 D2) x4 | x8 | x8 | x8 | x8 | x4 E2 x2 | x8 | x8 | x8 | x8 | %15
 C8 | x8 | x8 | x4 G2 x2 | x8 | x8 | x8 | x8 | C8 |] %24
V:3
 [C,G,]2 [E,G,]2 [G,C]2 [G,B,]2 | [C,G,]4 [E,G,]4 | [F,A,]2 [F,A,]2 [C,G,]2 [B,,G,]2 | [C,G,]8 | %4
 [C,F,]2 [F,A,]2 [D,G,]2 [D,G,]2 | (G,2 F,2) [C,E,]4 | [D,A,]2 [D,A,]2 [B,,G,]2 [^F,A,]2 | %7
 [G,B,]8 | [C,G,]2 [C,E,]2 [E,G,]2 [D,G,]2 | ([C,F,]2 [D,G,]2) [C,G,]4 | %10
 [G,,G,]2 [D,G,]2 [C,G,]2 [D,^F,]2 | [B,,G,]8 | [C,G,]2 [C,E,]2 [C,A,]2 [C,G,]2 | %13
 [B,,G,]4 [C,G,]4 | [F,A,]2 [C,G,]2 [D,G,]2 [G,,G,]2 | [C,E,]8 | [C,G,]2 [C,E,]2 [E,G,]2 [D,B,]2 | %17
 ([C,F,]2 [D,G,]2) [C,G,]4 | [G,,G,]2 [D,G,]2 [E,G,]2 [D,^F,]2 | [G,B,]8 | %20
 [C,E,]2 [C,G,]2 [C,A,]2 [C,G,]2 | G,4 [C,G,]4 | [F,A,]2 [C,G,]2 [G,,G,]2 [G,,F,]2 | [C,E,]8 |] %24
V:4
 x8 | x8 | x8 | x8 | x8 | C,4 x4 | x8 | x8 | x8 | x8 | x8 | x8 | x8 | x8 | x8 | x8 | x8 | x8 | x8 | %19
 x8 | x8 | (G,,2 B,,2) x4 | x8 | x8 |] %24

